X: 9551
T: Dave Collins'
R: jig
M: 6/8
K: Cmajor
|:B|c2G EGc|ded dcB|c2A GEC|~E3 ~D3|
~C3 EDE|CEG AGE|GAc dcB|ced c2:|
d|ece dBd|cea ~g3|a2g ede|gab a2b|
c'ba bag|age dBG|ABc dBG|ced c2d|
ece dBd|cea g2d|c2A GEC|~E3 ~D3|
~C3 EDE|CEG AGE|GAc dcB|ced c2||

